svgs/light/walkie-talkie.svg

<svg xmlns="http://www.w3.org/2000/svg" viewBox="0 0 384 512"><!-- Font Awesome Pro 6.0.0-alpha2 by @fontawesome - https://fontawesome.com License - https://fontawesome.com/license (Commercial License) --><path d="M320 96H96V16C96 7.162 88.836 0 80 0S64 7.162 64 16V96C28.654 96 0 124.654 0 160V293.49C0 310.465 6.744 326.742 18.746 338.744L32 352V448C32 483.346 60.654 512 96 512H288C323.348 512 352 483.346 352 448V352L365.256 338.744C377.258 326.742 384 310.465 384 293.49V160C384 124.654 355.348 96 320 96ZM352 293.49C352 302.037 348.672 310.074 342.629 316.117L329.373 329.373L320 338.744V448C320 465.645 305.645 480 288 480H96C78.355 480 64 465.645 64 448V338.744L41.373 316.117C35.33 310.074 32 302.037 32 293.49V160C32 142.355 46.355 128 64 128H320C337.645 128 352 142.355 352 160V293.49ZM176 80H208C216.844 80 224 72.844 224 64S216.844 48 208 48H176C167.156 48 160 55.156 160 64S167.156 80 176 80ZM272 176H112C103.156 176 96 183.156 96 192S103.156 208 112 208H272C280.844 208 288 200.844 288 192S280.844 176 272 176ZM272 240H112C103.156 240 96 247.156 96 256S103.156 272 112 272H272C280.844 272 288 264.844 288 256S280.844 240 272 240ZM272 304H112C103.156 304 96 311.156 96 320S103.156 336 112 336H272C280.844 336 288 328.844 288 320S280.844 304 272 304ZM272 80H304C312.844 80 320 72.844 320 64S312.844 48 304 48H272C263.156 48 256 55.156 256 64S263.156 80 272 80Z"/></svg>

<svg xmlns="http://www.w3.org/2000/svg" viewBox="0 0 384 512"><!--! Font Awesome Pro 6.3.0 by @fontawesome - https://fontawesome.com License - https://fontawesome.com/license (Commercial License) Copyright 2023 Fonticons, Inc. --><path d="M320 96H96V16C96 7.162 88.84 0 80 0S64 7.162 64 16V96C28.65 96 0 124.7 0 160v133.5c0 16.97 6.744 33.25 18.75 45.25L32 352v96c0 35.35 28.65 64 64 64h192c35.35 0 64-28.65 64-64v-96l13.26-13.26C377.3 326.7 384 310.5 384 293.5V160C384 124.7 355.3 96 320 96zM352 293.5c0 8.547-3.328 16.58-9.371 22.63L320 338.7V448c0 17.64-14.36 32-32 32H96c-17.64 0-32-14.36-32-32v-109.3L41.37 316.1C35.33 310.1 32 302 32 293.5V160c0-17.64 14.36-32 32-32h256c17.64 0 32 14.36 32 32V293.5zM176 80h32C216.8 80 224 72.84 224 64s-7.156-16-16-16h-32C167.2 48 160 55.16 160 64S167.2 80 176 80zM272 176h-160C103.2 176 96 183.2 96 192s7.156 16 16 16h160C280.8 208 288 200.8 288 192S280.8 176 272 176zM272 240h-160C103.2 240 96 247.2 96 256s7.156 16 16 16h160C280.8 272 288 264.8 288 256S280.8 240 272 240zM272 304h-160C103.2 304 96 311.2 96 320s7.156 16 16 16h160c8.844 0 16-7.156 16-16S280.8 304 272 304zM272 80h32C312.8 80 320 72.84 320 64s-7.156-16-16-16h-32C263.2 48 256 55.16 256 64S263.2 80 272 80z"/></svg>
